X:1
T:Title
L:1/8
M:none
I:linebreak $
K:G
V:1 treble
V:1
 ge ce Gc | E2 G2 ce | d3 B GB | D3 G Be |$ d6 F3 D Fe | d3 | B3 G Bd |$ ge ce Gc | E2 G2 ce | %9
"G" d3 B GB | D3 G Be |$ d2 d2 | c2 E3 F | A2 [GA]2 G | G2 :| %15
